X: 26
M:3/4
L:1/8
K:Eb
"Andante"e>d|c2 B2 G>F|E4 E>E|F2 F2 AB/2c/2|B>A G2 e>d|
c2 B2 (3GAF|E4 E>F|Gc/2B/2 GE F>G|E4||
c2 B2 (3GAF|E4 E>F|Ge/2d/2 G>E F>G|E4||

